svg/food/egg_crack_fill.svg

<?xml version="1.0" encoding="UTF-8"?>
<svg width="24px" height="24px" viewBox="0 0 24 24" version="1.1" xmlns="http://www.w3.org/2000/svg" xmlns:xlink="http://www.w3.org/1999/xlink">
    <title>egg_crack_fill</title>
    <g id="Icon" stroke="none" stroke-width="1" fill="none" fill-rule="evenodd">
        <g id="Food" transform="translate(-230.000000, -298.000000)" fill-rule="nonzero">
            <g id="egg_crack_fill" transform="translate(230.000000, 298.000000)">
                <path d="M24,0 L24,24 L0,24 L0,0 L24,0 Z M12.5935,23.2578 L12.5819,23.2595 L12.5109,23.295 L12.4919,23.2987 L12.4767,23.295 L12.4057,23.2595 C12.3958,23.2564 12.387,23.259 12.3821,23.2649 L12.378,23.2758 L12.3609,23.7031 L12.3659,23.7235 L12.3769,23.7357 L12.4805,23.8097 L12.4953,23.8136 L12.5071,23.8097 L12.6107,23.7357 L12.6233,23.7197 L12.6267,23.7031 L12.6096,23.2758 C12.6076,23.2657 12.601,23.2593 12.5935,23.2578 Z M12.8584,23.1453 L12.8445,23.1473 L12.6598,23.2397 L12.6499,23.2499 L12.6472,23.2611 L12.6651,23.6906 L12.6699,23.7034 L12.6784,23.7105 L12.8793,23.8032 C12.8914,23.8069 12.9022,23.803 12.9078,23.7952 L12.9118,23.7812 L12.8777,23.1665 C12.8753,23.1546 12.8674,23.147 12.8584,23.1453 Z M12.143,23.1473 C12.1332,23.1424 12.1222,23.1453 12.1156,23.1526 L12.1099,23.1665 L12.0758,23.7812 C12.0751,23.7927 12.0828,23.8019 12.0926,23.8046 L12.1083,23.8032 L12.3092,23.7105 L12.3186,23.7024 L12.3225,23.6906 L12.3404,23.2611 L12.3372,23.2485 L12.3278,23.2397 L12.143,23.1473 Z" id="MingCute"></path>
                <path d="M14.7243,2.96883 C13.8904,2.39417 12.9562,2 12,2 C10.9539,2 9.93404,2.47181 9.04314,3.13562 C8.13993,3.8086 7.28605,4.73925 6.55096,5.80847 C5.08805,7.93634 4,10.7552 4,13.5 C4,15.9761 4.82871,18.1076 6.27586,19.6272 C7.72459,21.1483 9.74115,22 12,22 C14.2589,22 16.2754,21.1483 17.7241,19.6272 C19.1713,18.1076 20,15.9761 20,13.5 C20,10.7552 18.9119,7.93634 17.449,5.80847 C17.0711,5.25877 16.6618,4.74569 16.2305,4.28542 L12.7062,8.51463 L14.3162,9.05132 C14.8402,9.22596 15.1233,9.79228 14.9487,10.3162 L13.9487,13.3162 C13.774,13.8402 13.2077,14.1233 12.6838,13.9487 C12.1598,13.774 11.8767,13.2077 12.0513,12.6838 L12.7351,10.6325 L10.6838,9.94868 C10.3702,9.84417 10.1286,9.5915 10.0382,9.27362 C9.94773,8.95574 10.0202,8.61371 10.2318,8.35982 L14.7243,2.96883 Z" id="路径" fill="#09244B"></path>
            </g>
        </g>
    </g>
</svg>

<svg xmlns="http://www.w3.org/2000/svg" width="24" height="24"><g fill="none" fill-rule="nonzero"><path d="M24 0v24H0V0h24ZM12.594 23.258l-.012.002-.071.035-.02.004-.014-.004-.071-.036c-.01-.003-.019 0-.024.006l-.004.01-.017.428.005.02.01.013.104.074.015.004.012-.004.104-.074.012-.016.004-.017-.017-.427c-.002-.01-.009-.017-.016-.018Zm.264-.113-.014.002-.184.093-.01.01-.003.011.018.43.005.012.008.008.201.092c.012.004.023 0 .029-.008l.004-.014-.034-.614c-.003-.012-.01-.02-.02-.022Zm-.715.002a.023.023 0 0 0-.027.006l-.006.014-.034.614c0 .012.007.02.017.024l.015-.002.201-.093.01-.008.003-.011.018-.43-.003-.012-.01-.01-.184-.092Z"/><path fill="#09244B" d="M14.724 2.969C13.89 2.394 12.956 2 12 2c-1.046 0-2.066.472-2.957 1.136-.903.673-1.757 1.603-2.492 2.672C5.088 7.936 4 10.755 4 13.5c0 2.476.829 4.608 2.276 6.127C7.725 21.148 9.74 22 12 22c2.259 0 4.275-.852 5.724-2.373C19.171 18.107 20 15.977 20 13.5c0-2.745-1.088-5.564-2.551-7.692a13.014 13.014 0 0 0-1.219-1.523l-3.524 4.23 1.61.536a1 1 0 0 1 .633 1.265l-1 3a1 1 0 0 1-1.898-.632l.684-2.051-2.051-.684a1 1 0 0 1-.452-1.59l4.492-5.39Z"/></g></svg>
